img/world.svg

<svg xmlns="http://www.w3.org/2000/svg" width="32" height="32">
  <path fill-rule="evenodd" d="M27.272 4.727a15.872 15.872 0 014.68 11.297c0 4.267-1.662 8.279-4.68 11.297A15.871 15.871 0 0115.976 32a15.873 15.873 0 01-11.297-4.679A15.871 15.871 0 010 16.024c0-4.267 1.661-8.279 4.679-11.297A15.873 15.873 0 0115.976.048c4.267 0 8.279 1.662 11.296 4.679zM25.86 25.909a13.888 13.888 0 003.816-7.086c-.421.62-.823.849-1.072-.536-.256-2.259-2.331-.816-3.636-1.619-1.372.926-4.458-1.799-3.934 1.274.809 1.386 4.368-1.855 2.594 1.078-1.132 2.047-4.138 6.582-3.747 8.932.049 3.424-3.499.714-4.722-.422-.822-2.275-.28-6.252-2.431-7.366-2.334-.101-4.337-.314-5.242-2.923-.544-1.867.58-4.646 2.58-5.075 2.929-1.84 3.974 2.155 6.721 2.229.853-.892 3.177-1.176 3.37-2.177-1.802-.317 2.286-1.514-.173-2.196-1.356.16-2.23 1.407-1.509 2.464-2.628.613-2.713-3.803-5.239-2.41-.064 2.202-4.126.713-1.405.267.934-.409-1.525-1.592-.196-1.377.652-.035 2.85-.805 2.255-1.323 1.223-.759 2.251 1.819 3.449-.059.864-1.443-.363-1.71-1.446-.978-.611-.684 1.078-2.162 2.569-2.8.496-.213.971-.329 1.333-.296.751.867 2.139 1.017 2.212-.104a13.918 13.918 0 00-6.031-1.361c-3.046 0-5.944.968-8.341 2.758.644.295 1.01.663.389 1.133-.482 1.437-2.438 3.366-4.157 3.092a13.829 13.829 0 00-1.73 5.009c1.439.476 1.77 1.419 1.461 1.734-.733.639-1.184 1.545-1.416 2.537a13.88 13.88 0 003.909 7.601 13.89 13.89 0 009.885 4.094c3.734 0 7.244-1.454 9.884-4.094z"/>
</svg>

<svg 
 xmlns="http://www.w3.org/2000/svg"
 xmlns:xlink="http://www.w3.org/1999/xlink"
 width="32px" height="32px">
<path fill-rule="evenodd"  fill="rgb(0, 0, 0)"
 d="M27.272,4.727 C30.290,7.745 31.952,11.757 31.952,16.024 C31.952,20.291 30.290,24.303 27.272,27.321 C24.255,30.338 20.243,32.000 15.976,32.000 C11.708,32.000 7.697,30.338 4.679,27.321 C1.661,24.303 -0.000,20.291 -0.000,16.024 C-0.000,11.757 1.661,7.745 4.679,4.727 C7.697,1.710 11.708,0.048 15.976,0.048 C20.243,0.048 24.255,1.710 27.272,4.727 ZM25.860,25.909 C27.828,23.941 29.136,21.490 29.676,18.823 C29.255,19.443 28.853,19.672 28.604,18.287 C28.348,16.028 26.273,17.471 24.968,16.668 C23.596,17.594 20.510,14.869 21.034,17.942 C21.843,19.328 25.402,16.087 23.628,19.020 C22.496,21.067 19.490,25.602 19.881,27.952 C19.930,31.376 16.382,28.666 15.159,27.530 C14.337,25.255 14.879,21.278 12.728,20.164 C10.394,20.063 8.391,19.850 7.486,17.241 C6.942,15.374 8.066,12.595 10.066,12.166 C12.995,10.326 14.040,14.321 16.787,14.395 C17.640,13.503 19.964,13.219 20.157,12.218 C18.355,11.901 22.443,10.704 19.984,10.022 C18.628,10.182 17.754,11.429 18.475,12.486 C15.847,13.099 15.762,8.683 13.236,10.076 C13.172,12.278 9.110,10.789 11.831,10.343 C12.765,9.934 10.306,8.751 11.635,8.966 C12.287,8.931 14.485,8.161 13.890,7.643 C15.113,6.884 16.141,9.462 17.339,7.584 C18.203,6.141 16.976,5.874 15.893,6.606 C15.282,5.922 16.971,4.444 18.462,3.806 C18.958,3.593 19.433,3.477 19.795,3.510 C20.546,4.377 21.934,4.527 22.007,3.406 C20.148,2.515 18.098,2.045 15.976,2.045 C12.930,2.045 10.032,3.013 7.635,4.803 C8.279,5.098 8.645,5.466 8.024,5.936 C7.542,7.373 5.586,9.302 3.867,9.028 C2.975,10.567 2.388,12.261 2.137,14.037 C3.576,14.513 3.907,15.456 3.598,15.771 C2.865,16.410 2.414,17.316 2.182,18.308 C2.651,21.174 3.997,23.815 6.091,25.909 C8.732,28.549 12.242,30.003 15.976,30.003 C19.710,30.003 23.220,28.549 25.860,25.909 Z"/>
</svg>
